src/images/Tools/XD.svg

<svg fill="none" height="50" viewBox="0 0 50 50" width="50" xmlns="http://www.w3.org/2000/svg" xmlns:xlink="http://www.w3.org/1999/xlink"><clipPath id="a"><path d="m0 0h50v50h-50z"/></clipPath><g clip-path="url(#a)"><path d="m0 0h50v50h-50z" fill="#470137"/><g fill="#ff61f6"><path d="m25.7689 16.7656-5.1849 8.5551 5.5306 9.0736c.0346.0691.0518.1383.0346.2074-.0173.0691-.0865.0173-.1902.0346h-3.9578c-.2765 0-.4666-.0173-.5876-.1901-.3629-.7259-.7432-1.4345-1.1061-2.1604-.363-.7086-.7605-1.4345-1.1753-2.1777s-.8295-1.4863-1.2443-2.2468h-.0346c-.363.7432-.7605 1.4864-1.158 2.2295-.3975.7432-.795 1.4864-1.1752 2.2123-.3975.7259-.795 1.469-1.1926 2.1776-.0691.1729-.2074.1901-.3975.1901h-3.8022c-.0692 0-.121.0346-.121-.0518-.01731-.0691 0-.1383.0345-.1901l5.3751-8.8144-5.2368-8.8662c-.0518-.0691-.0691-.1383-.0346-.1728.0346-.0519.1037-.0692.1729-.0692h3.9232c.0864 0 .1729.0173.242.0346.0691.0346.121.0864.1728.1556.3284.7431.7086 1.4863 1.1061 2.2295.4148.7431.8123 1.469 1.2444 2.1949.4148.7259.795 1.4518 1.158 2.195h.0346c.3629-.7605.7431-1.5037 1.1234-2.2295.3802-.7259.7777-1.4518 1.1752-2.1777s.7777-1.4691 1.158-2.1777c.0172-.0691.0518-.1382.1037-.1728.0691-.0346.1382-.0519.2246-.0346h3.6468c.0864-.0173.1728.0346.1901.121.0173.0173-.0173.0864-.0519.121z"/><path d="m33.7534 34.9992c-1.279.0173-2.5579-.242-3.7159-.7777-1.0888-.5013-1.9875-1.3308-2.6097-2.3505-.6395-1.0543-.9506-2.3678-.9506-3.9406-.0173-1.2789.3111-2.5406.9506-3.6467.6567-1.1234 1.6073-2.0567 2.748-2.6789 1.2098-.674 2.6616-1.0024 4.3726-1.0024.0864 0 .2074 0 .3629.0173.1556.0173.3284.0173.5358.0345v-5.4614c0-.121.0519-.1901.1729-.1901h3.5084c.0864-.0173.1556.0518.1728.121v.0345 16.4535c0 .3111.0173.6568.0346 1.037.0346.3629.0519.7086.0691 1.0024 0 .121-.0518.2247-.1728.2765-.8987.3803-1.8493.6568-2.8171.8296-.8815.1556-1.7629.242-2.6616.242zm1.6937-3.4566v-7.6046c-.1555-.0345-.3111-.0691-.4666-.0864-.1901-.0173-.3802-.0346-.5704-.0346-.674 0-1.348.1383-1.953.4494-.5876.2938-1.0888.7259-1.469 1.279-.3802.553-.5703 1.2962-.5703 2.1949-.0173.6049.0864 1.2098.2938 1.7802.1728.4666.432.8814.7777 1.2271.3284.3111.7259.553 1.1752.6913.4667.1555.9506.2247 1.4345.2247.2593 0 .5013-.0173.7259-.0346.2247.0173.4148-.0173.6222-.0864z"/></g></g></svg>

<svg width="50" height="50" viewBox="0 0 50 50" fill="none" xmlns="http://www.w3.org/2000/svg">
<rect width="50" height="50" fill="#470137"/>
<path d="M25.7689 16.7656L20.584 25.3207L26.1146 34.3943C26.1492 34.4634 26.1664 34.5326 26.1492 34.6017C26.1319 34.6708 26.0627 34.619 25.959 34.6363H22.0012C21.7247 34.6363 21.5346 34.619 21.4136 34.4462C21.0507 33.7203 20.6704 33.0117 20.3075 32.2858C19.9445 31.5772 19.547 30.8513 19.1322 30.1081C18.7174 29.3649 18.3027 28.6218 17.8879 27.8613H17.8533C17.4903 28.6045 17.0928 29.3477 16.6953 30.0908C16.2978 30.834 15.9003 31.5772 15.5201 32.3031C15.1226 33.029 14.7251 33.7721 14.3275 34.4807C14.2584 34.6536 14.1201 34.6708 13.93 34.6708H10.1278C10.0586 34.6708 10.0068 34.7054 10.0068 34.619C9.9895 34.5499 10.0068 34.4807 10.0413 34.4289L15.4164 25.6145L10.1796 16.7483C10.1278 16.6792 10.1105 16.61 10.145 16.5755C10.1796 16.5236 10.2487 16.5063 10.3179 16.5063H14.2411C14.3275 16.5063 14.414 16.5236 14.4831 16.5409C14.5522 16.5755 14.6041 16.6273 14.6559 16.6965C14.9843 17.4396 15.3645 18.1828 15.762 18.926C16.1768 19.6691 16.5743 20.395 17.0064 21.1209C17.4212 21.8468 17.8014 22.5727 18.1644 23.3159H18.199C18.5619 22.5554 18.9421 21.8122 19.3224 21.0864C19.7026 20.3605 20.1001 19.6346 20.4976 18.9087C20.8951 18.1828 21.2753 17.4396 21.6556 16.731C21.6728 16.6619 21.7074 16.5928 21.7593 16.5582C21.8284 16.5236 21.8975 16.5063 21.9839 16.5236H25.6307C25.7171 16.5063 25.8035 16.5582 25.8208 16.6446C25.8381 16.6619 25.8035 16.731 25.7689 16.7656Z" fill="#FF61F6"/>
<path d="M33.7534 34.9992C32.4744 35.0165 31.1955 34.7572 30.0375 34.2215C28.9487 33.7202 28.05 32.8907 27.4278 31.871C26.7883 30.8167 26.4772 29.5032 26.4772 27.9304C26.4599 26.6515 26.7883 25.3898 27.4278 24.2837C28.0845 23.1603 29.0351 22.227 30.1758 21.6048C31.3856 20.9308 32.8374 20.6024 34.5484 20.6024C34.6348 20.6024 34.7558 20.6024 34.9113 20.6197C35.0669 20.637 35.2397 20.637 35.4471 20.6542V15.1928C35.4471 15.0718 35.499 15.0027 35.62 15.0027H39.1284C39.2148 14.9854 39.284 15.0545 39.3012 15.1237C39.3012 15.141 39.3012 15.1582 39.3012 15.1582V31.6117C39.3012 31.9228 39.3185 32.2685 39.3358 32.6487C39.3704 33.0116 39.3877 33.3573 39.4049 33.6511C39.4049 33.7721 39.3531 33.8758 39.2321 33.9276C38.3334 34.3079 37.3828 34.5844 36.415 34.7572C35.5335 34.9128 34.6521 34.9992 33.7534 34.9992ZM35.4471 31.5426V23.938C35.2916 23.9035 35.136 23.8689 34.9805 23.8516C34.7904 23.8343 34.6003 23.817 34.4101 23.817C33.7361 23.817 33.0621 23.9553 32.4571 24.2664C31.8695 24.5602 31.3683 24.9923 30.9881 25.5454C30.6079 26.0984 30.4178 26.8416 30.4178 27.7403C30.4005 28.3452 30.5042 28.9501 30.7116 29.5205C30.8844 29.9871 31.1436 30.4019 31.4893 30.7476C31.8177 31.0587 32.2152 31.3006 32.6645 31.4389C33.1312 31.5944 33.6151 31.6636 34.099 31.6636C34.3583 31.6636 34.6003 31.6463 34.8249 31.629C35.0496 31.6463 35.2397 31.6117 35.4471 31.5426Z" fill="#FF61F6"/>
</svg>
